public/images/poses-sm/EasyPose.svg

<svg width="800" height="900" fill="none" xmlns="http://www.w3.org/2000/svg"><path d="M471.988 548.226c16.652 30.777 16.338 43.154 35.37 68.536 19.034 25.385 43.238 24.008 48.313 49.393 5.076 25.382-27.692 49.611-120.331 46.436-92.631-3.171-134.905-14.914-158.935-6.11-24.033 8.806-19.035 27.847-36.165 21.896-17.133-5.95-14.752-38.554-7.617-47.36 7.139-8.808 19.275-11.901 33.314-8.328 14.036 3.57 41.558 1.189 54.247-.713 12.688-1.903 80.578-6.565 104.691-33.108 0 0-126.583-34.795-122.142-40.51 4.448-5.711 28.556-40.932 32.202-50.133l76.931-19.039 60.122 19.04Z" fill="#fff" stroke="#000" stroke-width="5" stroke-miterlimit="10"/><path d="M471.988 548.226c16.652 30.777 16.338 43.154 35.37 68.536 19.034 25.385 43.238 24.008 48.313 49.393 5.076 25.382-27.692 49.611-120.331 46.436-92.631-3.171-134.905-14.914-158.935-6.11-24.033 8.806-19.035 27.847-36.165 21.896-17.133-5.95-14.752-38.554-7.617-47.36 7.139-8.808 19.275-11.901 33.314-8.328 14.036 3.57 41.558 1.189 54.247-.713 12.688-1.903 80.578-6.565 104.691-33.108 0 0-126.583-34.795-122.142-40.51 4.448-5.711 28.556-40.932 32.202-50.133l76.931-19.039 60.122 19.04Z" stroke="#000" stroke-width="5" stroke-miterlimit="10"/><path d="M299.47 674.088c-26.157-14.961-79.911-43.296-63.147-85.104 15.665-39.064 65.866-4.762 128.061 10.716 63.092 15.7 93.684 19.523 131.036 15.477 37.359-4.046 56.035-10.784 63.648-2.456 7.614 8.328 6.811 41.899-6.115 47.247-12.918 5.346-21.484-17.501-44.324-19.641-22.84-2.145-78.978 2.294-101.872 11.591-42.372 17.202-107.287 22.17-107.287 22.17Z" fill="#fff" stroke="#000" stroke-width="5" stroke-miterlimit="10"/><path d="M299.47 674.088c-26.157-14.961-79.911-43.296-63.147-85.104 15.665-39.064 65.866-4.762 128.061 10.716 63.092 15.7 93.684 19.523 131.036 15.477 37.359-4.046 56.035-10.784 63.648-2.456 7.614 8.328 6.811 41.899-6.115 47.247-12.918 5.346-21.484-17.501-44.324-19.641-22.84-2.145-78.978 2.294-101.872 11.591-42.372 17.202-107.287 22.17-107.287 22.17Z" stroke="#000" stroke-width="5" stroke-miterlimit="10"/><path d="M471.988 640.628s12.695-11.292 0-23.992Z" fill="#fff"/><path d="M471.988 640.628s12.695-11.292 0-23.992" stroke="#000" stroke-width="5" stroke-miterlimit="10"/><path d="M471.988 640.628s12.695-11.292 0-23.992M278.945 641.99c18.559 12.061 79.15 21.277 113.651 14.999" stroke="#000" stroke-width="5" stroke-miterlimit="10"/><path d="M277.633 530.912c-4.432-6.217-4.897-14.458-1.115-21.094 15.435-27.086 52.51-82.554 61.978-92.145 11.136-11.283 25.888-40.793 25.888-40.793l-20.145-21.261c-13.006 4.128-35.213 8.887-49.491 47.595-13.398 36.342-39.377 73.238-56.422 98.624-3.009 4.481-4.685 9.739-4.562 15.139.338 15.011 9.384 44.391 65.486 74.61 0 0 6.187 9.283 15.468 18.564 9.281 9.284 40.198 31.53 34.021 6.485-6.179-25.049-43.302-46.71-43.302-46.71l-27.804-39.014Z" fill="#fff" stroke="#000" stroke-width="5" stroke-miterlimit="10"/><path d="M277.633 530.912c-4.432-6.217-4.897-14.458-1.115-21.094 15.435-27.086 52.51-82.554 61.978-92.145 11.136-11.283 25.888-40.793 25.888-40.793l-20.145-21.261c-13.006 4.128-35.213 8.887-49.491 47.595-13.398 36.342-39.377 73.238-56.422 98.624-3.009 4.481-4.685 9.739-4.562 15.139.338 15.011 9.384 44.391 65.486 74.61 0 0 6.187 9.283 15.468 18.564 9.281 9.284 40.198 31.53 34.021 6.485-6.179-25.049-43.302-46.71-43.302-46.71l-27.804-39.014Z" stroke="#000" stroke-width="5" stroke-miterlimit="10"/><path d="M527.897 530.912c4.434-6.217 4.899-14.458 1.117-21.094-15.432-27.086-52.507-82.554-61.974-92.145-11.136-11.283-25.892-40.793-25.892-40.793l20.145-21.261c13.01 4.128 35.214 8.887 49.491 47.595 13.402 36.342 39.384 73.238 56.423 98.624 3.008 4.481 4.683 9.739 4.561 15.139-.338 15.011-9.377 44.391-65.484 74.61 0 0-6.188 9.283-15.469 18.564-9.281 9.284-40.198 31.53-34.017 6.485 6.175-25.049 43.297-46.71 43.297-46.71l27.802-39.014Z" fill="#fff" stroke="#000" stroke-width="5" stroke-miterlimit="10"/><path d="M527.897 530.912c4.434-6.217 4.899-14.458 1.117-21.094-15.432-27.086-52.507-82.554-61.974-92.145-11.136-11.283-25.892-40.793-25.892-40.793l20.145-21.261c13.01 4.128 35.214 8.887 49.491 47.595 13.402 36.342 39.384 73.238 56.423 98.624 3.008 4.481 4.683 9.739 4.561 15.139-.338 15.011-9.377 44.391-65.484 74.61 0 0-6.188 9.283-15.469 18.564-9.281 9.284-40.198 31.53-34.017 6.485 6.175-25.049 43.297-46.71 43.297-46.71l27.802-39.014Z" stroke="#000" stroke-width="5" stroke-miterlimit="10"/><path d="M468.37 417.673c-11.42-33.318-5.74-62.054-5.74-62.054s-13.166-3.49-28.393-15.39c-15.225-11.897-11.426-52.042-11.426-52.042s-.791.163-19.347.163c-18.56 0-19.539-.163-19.539-.163s3.99 40.146-11.238 52.042c-15.226 11.899-28.386 15.39-28.386 15.39s5.673 28.736-5.75 62.054c0 0 10.661 70.582-3.613 130.554 0 0 29.978 11.899 68.526 11.899 38.543 0 68.524-11.899 68.524-11.899-14.276-59.972-3.618-130.554-3.618-130.554Z" fill="#fff" stroke="#000" stroke-width="5" stroke-miterlimit="10"/><path d="M468.37 417.673c-11.42-33.318-5.74-62.054-5.74-62.054s-13.166-3.49-28.393-15.39c-15.225-11.897-11.426-52.042-11.426-52.042s-.791.163-19.347.163c-18.56 0-19.539-.163-19.539-.163s3.99 40.146-11.238 52.042c-15.226 11.899-28.386 15.39-28.386 15.39s5.673 28.736-5.75 62.054c0 0 10.661 70.582-3.613 130.554 0 0 29.978 11.899 68.526 11.899 38.543 0 68.524-11.899 68.524-11.899-14.276-59.972-3.618-130.554-3.618-130.554Z" stroke="#000" stroke-width="5" stroke-miterlimit="10"/><path d="M369.576 205.182c-22.319 46.281 12.916 101.865 33.191 102.134 20.272.266 56.96-54.372 35.867-101.224-13.299-29.532-54.986-30.084-69.058-.91Z" fill="#fff" stroke="#000" stroke-width="5" stroke-miterlimit="10"/><path d="M369.576 205.182c-22.319 46.281 12.916 101.865 33.191 102.134 20.272.266 56.96-54.372 35.867-101.224-13.299-29.532-54.986-30.084-69.058-.91Z" stroke="#000" stroke-width="5" stroke-miterlimit="10"/><path d="M534.272 260.906c-17.795-9.778-13.28-22.312-29.075-34.846-15.789-12.534-35.353-4.067-43.612-24.318-8.188-20.064-34.853-31.526-58.084-31.245h-.073c-23.237-.281-49.904 11.18-58.089 31.245-8.259 20.251-27.818 11.784-43.612 24.318-15.788 12.534-11.281 25.068-29.075 34.846-17.794 9.778-19.248 8.875-18.549 16.55 1.027 11.317 41.498 6.844 71.85 7.618 5.949.151 27.617 6.177 33.411 7.533 11.852 2.777 27.078 2.384 27.392-1.865.505-6.772-1.667-22.874-6.287-31.117-4.616-8.243-14.154-5.581-14.154-17.674 0-11.281 4.632-6.89 15.282-16.921 9.392-8.845 18.794-19.091 21.868-27.411 3.075 8.32 12.471 18.566 21.86 27.411 10.653 10.032 15.287 5.641 15.287 16.921 0 12.093-9.542 9.43-14.158 17.674-4.616 8.243-6.785 24.346-6.284 31.117.314 4.248 15.54 4.641 27.39 1.865 5.795-1.356 27.462-7.382 33.414-7.533 30.35-.774 70.82 3.699 71.847-7.618.695-7.675-.748-6.772-18.549-16.55Z" fill="#100200" stroke="#000" stroke-width="5" stroke-miterlimit="10"/><path d="M359.461 349.267s16.525 24.88 44.238 24.88c27.709 0 44.236-24.88 44.236-24.88" stroke="#000" stroke-width="5" stroke-miterlimit="10"/><path d="M310.28 674.088s-12.891 17.734 0 29.482Z" fill="#fff"/><path d="M310.28 674.088s-12.891 17.734 0 29.482" stroke="#000" stroke-width="5" stroke-miterlimit="10"/><path d="M310.28 674.088s-12.891 17.734 0 29.482" stroke="#000" stroke-width="5" stroke-miterlimit="10"/></svg>

<svg width="800" height="900" viewBox="0 0 800 900" fill="none" xmlns="http://www.w3.org/2000/svg">
<path d="M471.988 548.226C488.64 579.003 488.326 591.38 507.358 616.762C526.392 642.147 550.596 640.77 555.671 666.155C560.747 691.537 527.979 715.766 435.34 712.591C342.709 709.42 300.435 697.677 276.405 706.481C252.372 715.287 257.37 734.328 240.24 728.377C223.107 722.427 225.488 689.823 232.623 681.017C239.762 672.209 251.898 669.116 265.937 672.689C279.973 676.259 307.495 673.878 320.184 671.976C332.872 670.073 400.762 665.411 424.875 638.868C424.875 638.868 298.292 604.073 302.733 598.358C307.181 592.647 331.289 557.426 334.935 548.225L411.866 529.186L471.988 548.226Z" fill="white" stroke="black" stroke-width="5" stroke-miterlimit="10"/>
<path d="M471.988 548.226C488.64 579.003 488.326 591.38 507.358 616.762C526.392 642.147 550.596 640.77 555.671 666.155C560.747 691.537 527.979 715.766 435.34 712.591C342.709 709.42 300.435 697.677 276.405 706.481C252.372 715.287 257.37 734.328 240.24 728.377C223.107 722.427 225.488 689.823 232.623 681.017C239.762 672.209 251.898 669.116 265.937 672.689C279.973 676.259 307.495 673.878 320.184 671.976C332.872 670.073 400.762 665.411 424.875 638.868C424.875 638.868 298.292 604.073 302.733 598.358C307.181 592.647 331.289 557.426 334.935 548.225L411.866 529.186L471.988 548.226Z" stroke="black" stroke-width="5" stroke-miterlimit="10"/>
<path d="M299.47 674.088C273.313 659.127 219.559 630.792 236.323 588.984C251.988 549.92 302.189 584.222 364.384 599.7C427.476 615.4 458.068 619.223 495.42 615.177C532.779 611.131 551.455 604.393 559.068 612.721C566.682 621.049 565.879 654.62 552.953 659.968C540.035 665.314 531.469 642.467 508.629 640.327C485.789 638.182 429.651 642.621 406.757 651.918C364.385 669.12 299.47 674.088 299.47 674.088Z" fill="white" stroke="black" stroke-width="5" stroke-miterlimit="10"/>
<path d="M299.47 674.088C273.313 659.127 219.559 630.792 236.323 588.984C251.988 549.92 302.189 584.222 364.384 599.7C427.476 615.4 458.068 619.223 495.42 615.177C532.779 611.131 551.455 604.393 559.068 612.721C566.682 621.049 565.879 654.62 552.953 659.968C540.035 665.314 531.469 642.467 508.629 640.327C485.789 638.182 429.651 642.621 406.757 651.918C364.385 669.12 299.47 674.088 299.47 674.088Z" stroke="black" stroke-width="5" stroke-miterlimit="10"/>
<path d="M471.988 640.628C471.988 640.628 484.683 629.336 471.988 616.636Z" fill="white"/>
<path d="M471.988 640.628C471.988 640.628 484.683 629.336 471.988 616.636" stroke="black" stroke-width="5" stroke-miterlimit="10"/>
<path d="M471.988 640.628C471.988 640.628 484.683 629.336 471.988 616.636" stroke="black" stroke-width="5" stroke-miterlimit="10"/>
<path d="M278.945 641.99C297.504 654.051 358.095 663.267 392.596 656.989" stroke="black" stroke-width="5" stroke-miterlimit="10"/>
<path d="M277.633 530.912C273.201 524.695 272.736 516.454 276.518 509.818C291.953 482.732 329.028 427.264 338.496 417.673C349.632 406.39 364.384 376.88 364.384 376.88L344.239 355.619C331.233 359.747 309.026 364.506 294.748 403.214C281.35 439.556 255.371 476.452 238.326 501.838C235.317 506.319 233.641 511.577 233.764 516.977C234.102 531.988 243.148 561.368 299.25 591.587C299.25 591.587 305.437 600.87 314.718 610.151C323.999 619.435 354.916 641.681 348.739 616.636C342.56 591.587 305.437 569.926 305.437 569.926L277.633 530.912Z" fill="white" stroke="black" stroke-width="5" stroke-miterlimit="10"/>
<path d="M277.633 530.912C273.201 524.695 272.736 516.454 276.518 509.818C291.953 482.732 329.028 427.264 338.496 417.673C349.632 406.39 364.384 376.88 364.384 376.88L344.239 355.619C331.233 359.747 309.026 364.506 294.748 403.214C281.35 439.556 255.371 476.452 238.326 501.838C235.317 506.319 233.641 511.577 233.764 516.977C234.102 531.988 243.148 561.368 299.25 591.587C299.25 591.587 305.437 600.87 314.718 610.151C323.999 619.435 354.916 641.681 348.739 616.636C342.56 591.587 305.437 569.926 305.437 569.926L277.633 530.912Z" stroke="black" stroke-width="5" stroke-miterlimit="10"/>
<path d="M527.897 530.912C532.331 524.695 532.796 516.454 529.014 509.818C513.582 482.732 476.507 427.264 467.04 417.673C455.904 406.39 441.148 376.88 441.148 376.88L461.293 355.619C474.303 359.747 496.507 364.506 510.784 403.214C524.186 439.556 550.168 476.452 567.207 501.838C570.215 506.319 571.89 511.577 571.768 516.977C571.43 531.988 562.391 561.368 506.284 591.587C506.284 591.587 500.096 600.87 490.815 610.151C481.534 619.435 450.617 641.681 456.798 616.636C462.973 591.587 500.095 569.926 500.095 569.926L527.897 530.912Z" fill="white" stroke="black" stroke-width="5" stroke-miterlimit="10"/>
<path d="M527.897 530.912C532.331 524.695 532.796 516.454 529.014 509.818C513.582 482.732 476.507 427.264 467.04 417.673C455.904 406.39 441.148 376.88 441.148 376.88L461.293 355.619C474.303 359.747 496.507 364.506 510.784 403.214C524.186 439.556 550.168 476.452 567.207 501.838C570.215 506.319 571.89 511.577 571.768 516.977C571.43 531.988 562.391 561.368 506.284 591.587C506.284 591.587 500.096 600.87 490.815 610.151C481.534 619.435 450.617 641.681 456.798 616.636C462.973 591.587 500.095 569.926 500.095 569.926L527.897 530.912Z" stroke="black" stroke-width="5" stroke-miterlimit="10"/>
<path d="M468.37 417.673C456.95 384.355 462.63 355.619 462.63 355.619C462.63 355.619 449.464 352.129 434.237 340.229C419.012 328.332 422.811 288.187 422.811 288.187C422.811 288.187 422.02 288.35 403.464 288.35C384.904 288.35 383.925 288.187 383.925 288.187C383.925 288.187 387.915 328.333 372.687 340.229C357.461 352.128 344.301 355.619 344.301 355.619C344.301 355.619 349.974 384.355 338.551 417.673C338.551 417.673 349.212 488.255 334.938 548.227C334.938 548.227 364.916 560.126 403.464 560.126C442.007 560.126 471.988 548.227 471.988 548.227C457.712 488.255 468.37 417.673 468.37 417.673Z" fill="white" stroke="black" stroke-width="5" stroke-miterlimit="10"/>
<path d="M468.37 417.673C456.95 384.355 462.63 355.619 462.63 355.619C462.63 355.619 449.464 352.129 434.237 340.229C419.012 328.332 422.811 288.187 422.811 288.187C422.811 288.187 422.02 288.35 403.464 288.35C384.904 288.35 383.925 288.187 383.925 288.187C383.925 288.187 387.915 328.333 372.687 340.229C357.461 352.128 344.301 355.619 344.301 355.619C344.301 355.619 349.974 384.355 338.551 417.673C338.551 417.673 349.212 488.255 334.938 548.227C334.938 548.227 364.916 560.126 403.464 560.126C442.007 560.126 471.988 548.227 471.988 548.227C457.712 488.255 468.37 417.673 468.37 417.673Z" stroke="black" stroke-width="5" stroke-miterlimit="10"/>
<path d="M369.576 205.182C347.257 251.463 382.492 307.047 402.767 307.316C423.039 307.582 459.727 252.944 438.634 206.092C425.335 176.56 383.648 176.008 369.576 205.182Z" fill="white" stroke="black" stroke-width="5" stroke-miterlimit="10"/>
<path d="M369.576 205.182C347.257 251.463 382.492 307.047 402.767 307.316C423.039 307.582 459.727 252.944 438.634 206.092C425.335 176.56 383.648 176.008 369.576 205.182Z" stroke="black" stroke-width="5" stroke-miterlimit="10"/>
<path d="M534.272 260.906C516.477 251.128 520.992 238.594 505.197 226.06C489.408 213.526 469.844 221.993 461.585 201.742C453.397 181.678 426.732 170.216 403.501 170.497H403.464H403.428C380.191 170.216 353.524 181.677 345.339 201.742C337.08 221.993 317.521 213.526 301.727 226.06C285.939 238.594 290.446 251.128 272.652 260.906C254.858 270.684 253.404 269.781 254.103 277.456C255.13 288.773 295.601 284.3 325.953 285.074C331.902 285.225 353.57 291.251 359.364 292.607C371.216 295.384 386.442 294.991 386.756 290.742C387.261 283.97 385.089 267.868 380.469 259.625C375.853 251.382 366.315 254.044 366.315 241.951C366.315 230.67 370.947 235.061 381.597 225.03C390.989 216.185 400.391 205.939 403.465 197.619C406.54 205.939 415.936 216.185 425.325 225.03C435.978 235.062 440.612 230.671 440.612 241.951C440.612 254.044 431.07 251.381 426.454 259.625C421.838 267.868 419.669 283.971 420.17 290.742C420.484 294.99 435.71 295.383 447.56 292.607C453.355 291.251 475.022 285.225 480.974 285.074C511.324 284.3 551.794 288.773 552.821 277.456C553.516 269.781 552.073 270.684 534.272 260.906Z" fill="#100200" stroke="black" stroke-width="5" stroke-miterlimit="10"/>
<path d="M359.461 349.267C359.461 349.267 375.986 374.147 403.699 374.147C431.408 374.147 447.935 349.267 447.935 349.267" stroke="black" stroke-width="5" stroke-miterlimit="10"/>
<path d="M310.28 674.088C310.28 674.088 297.389 691.822 310.28 703.57Z" fill="white"/>
<path d="M310.28 674.088C310.28 674.088 297.389 691.822 310.28 703.57" stroke="black" stroke-width="5" stroke-miterlimit="10"/>
<path d="M310.28 674.088C310.28 674.088 297.389 691.822 310.28 703.57" stroke="black" stroke-width="5" stroke-miterlimit="10"/>
</svg>
